images/tax.svg

<svg width="512" height="512" fill="none" xmlns="http://www.w3.org/2000/svg"><path d="M453.568 225.864l15.56-3.736a104.61 104.61 0 00-5.8-17.32l-14.672 6.408a86.332 86.332 0 014.912 14.648zm2.432 20.48V248c0 43.136-30.832 79.624-73.328 86.776l2.656 15.784C435.544 342.104 472 298.968 472 248v-1.656c0-2.296-.08-4.584-.224-6.872l-15.968 1.064c.128 1.928.192 3.872.192 5.808z" fill="#BDBDBD"/><path d="M472.488 159.272l-46.784-56.128 26.08-45.64A32.166 32.166 0 00456 41.624V40c0-17.648-14.352-32-32-32-10.64 0-16.288 6.464-20.032 10.736-3.488 3.976-4.88 5.264-7.992 5.264-3.12 0-4.504-1.288-8-5.272C384.232 14.456 378.584 8 367.952 8c-10.624 0-16.272 6.464-20.016 10.736-3.472 3.976-4.864 5.264-7.968 5.264s-4.488-1.288-7.96-5.264C328.272 14.464 322.624 8 312 8c-17.648 0-32 14.352-32 32v1.624a32.114 32.114 0 004.216 15.872l26.08 45.64L292.072 125c-11.504-3.168-23.568-5-36.072-5-74.992 0-136 61.008-136 136 0 26.416 7.688 51.016 20.776 71.912L120 348.688l-7.504-7.504-85.936 71.6C14.768 422.608 8 437.056 8 452.416 8 480.856 31.144 504 59.584 504c15.36 0 29.808-6.768 39.632-18.552l71.6-85.936-7.504-7.512 20.776-20.776C204.984 384.312 229.584 392 256 392c23.528 0 45.68-6.016 65-16.576 15.144 5.608 30.912 8.576 47 8.576 74.992 0 136-61.008 136-136v-1.656c0-31.744-11.192-62.664-31.512-87.072zM296 41.624V40c0-8.824 7.176-16 16-16 3.104 0 4.488 1.288 7.96 5.264C323.696 33.536 329.344 40 339.968 40c10.624 0 16.272-6.464 20.016-10.736 3.48-3.976 4.864-5.264 7.968-5.264 3.112 0 4.496 1.288 7.992 5.264C379.688 33.536 385.336 40 395.976 40c10.632 0 16.28-6.456 20.024-10.728 3.496-3.984 4.88-5.272 8-5.272 8.824 0 16 7.176 16 16v1.624c0 2.776-.728 5.52-2.112 7.936L411.36 96h-86.72l-26.536-46.44A16.042 16.042 0 01296 41.624zM86.92 475.192C80.152 483.336 70.176 488 59.584 488 39.96 488 24 472.04 24 452.416a35.462 35.462 0 0112.808-27.336l74.704-62.256 37.672 37.672-62.264 74.696zM152 380.688L131.312 360l18.824-18.824a137.084 137.084 0 0020.688 20.688L152 380.688zM136 256c0-66.168 53.832-120 120-120s120 53.832 120 120-53.832 120-120 120-120-53.832-120-120zm352-8c0 66.168-53.832 120-120 120-10.104 0-20.056-1.4-29.792-3.912C370.824 339.216 392 300.088 392 256c0-56.448-34.584-104.952-83.664-125.496L323.752 112h88.496l47.936 57.512C478.128 191.048 488 218.336 488 246.344V248z" fill="#BDBDBD"/><path d="M256 152c-57.344 0-104 46.656-104 104s46.656 104 104 104 104-46.656 104-104-46.656-104-104-104zm0 192c-48.52 0-88-39.48-88-88s39.48-88 88-88 88 39.48 88 88-39.48 88-88 88z" fill="#BDBDBD"/><path d="M312 248h16v16h-16v-16zm-128 0h16v16h-16v-16zM48 472a8 8 0 100-16 8 8 0 000 16zm227.888-160h21.168V209.76h-20.448v67.536l-44.64-67.536H210.8V312h20.448v-67.536L275.888 312z" fill="#BDBDBD"/><path stroke="#BDBDBD" stroke-width="13" d="M192 236.5h123m-123 27h123"/></svg>

<svg width="512" height="512" viewBox="0 0 512 512" fill="none" xmlns="http://www.w3.org/2000/svg">
<path d="M453.568 225.864L469.128 222.128C467.704 216.2 465.752 210.368 463.328 204.808L448.656 211.216C450.72 215.912 452.368 220.84 453.568 225.864V225.864Z" fill="#BDBDBD"/>
<path d="M456 246.344V248C456 291.136 425.168 327.624 382.672 334.776L385.328 350.56C435.544 342.104 472 298.968 472 248V246.344C472 244.048 471.92 241.76 471.776 239.472L455.808 240.536C455.936 242.464 456 244.408 456 246.344V246.344Z" fill="#BDBDBD"/>
<path d="M472.488 159.272L425.704 103.144L451.784 57.504C454.536 52.672 456 47.176 456 41.624V40C456 22.352 441.648 8 424 8C413.36 8 407.712 14.464 403.968 18.736C400.48 22.712 399.088 24 395.976 24C392.856 24 391.472 22.712 387.976 18.728C384.232 14.456 378.584 8 367.952 8C357.328 8 351.68 14.464 347.936 18.736C344.464 22.712 343.072 24 339.968 24C336.864 24 335.48 22.712 332.008 18.736C328.272 14.464 322.624 8 312 8C294.352 8 280 22.352 280 40V41.624C280 47.176 281.464 52.672 284.216 57.496L310.296 103.136L292.072 125C280.568 121.832 268.504 120 256 120C181.008 120 120 181.008 120 256C120 282.416 127.688 307.016 140.776 327.912L120 348.688L112.496 341.184L26.56 412.784C14.768 422.608 8 437.056 8 452.416C8 480.856 31.144 504 59.584 504C74.944 504 89.392 497.232 99.216 485.448L170.816 399.512L163.312 392L184.088 371.224C204.984 384.312 229.584 392 256 392C279.528 392 301.68 385.984 321 375.424C336.144 381.032 351.912 384 368 384C442.992 384 504 322.992 504 248V246.344C504 214.6 492.808 183.68 472.488 159.272V159.272ZM296 41.624V40C296 31.176 303.176 24 312 24C315.104 24 316.488 25.288 319.96 29.264C323.696 33.536 329.344 40 339.968 40C350.592 40 356.24 33.536 359.984 29.264C363.464 25.288 364.848 24 367.952 24C371.064 24 372.448 25.288 375.944 29.264C379.688 33.536 385.336 40 395.976 40C406.608 40 412.256 33.544 416 29.272C419.496 25.288 420.88 24 424 24C432.824 24 440 31.176 440 40V41.624C440 44.4 439.272 47.144 437.888 49.56L411.36 96H324.64L298.104 49.56C296.728 47.152 296 44.4 296 41.624V41.624ZM86.92 475.192C80.152 483.336 70.176 488 59.584 488C39.96 488 24 472.04 24 452.416C24 441.824 28.664 431.856 36.808 425.08L111.512 362.824L149.184 400.496L86.92 475.192ZM152 380.688L131.312 360L150.136 341.176C156.272 348.792 163.208 355.72 170.824 361.864L152 380.688ZM136 256C136 189.832 189.832 136 256 136C322.168 136 376 189.832 376 256C376 322.168 322.168 376 256 376C189.832 376 136 322.168 136 256ZM488 248C488 314.168 434.168 368 368 368C357.896 368 347.944 366.6 338.208 364.088C370.824 339.216 392 300.088 392 256C392 199.552 357.416 151.048 308.336 130.504L323.752 112H412.248L460.184 169.512C478.128 191.048 488 218.336 488 246.344V248Z" fill="#BDBDBD"/>
<path d="M256 152C198.656 152 152 198.656 152 256C152 313.344 198.656 360 256 360C313.344 360 360 313.344 360 256C360 198.656 313.344 152 256 152ZM256 344C207.48 344 168 304.52 168 256C168 207.48 207.48 168 256 168C304.52 168 344 207.48 344 256C344 304.52 304.52 344 256 344Z" fill="#BDBDBD"/>
<path d="M312 248H328V264H312V248Z" fill="#BDBDBD"/>
<path d="M184 248H200V264H184V248Z" fill="#BDBDBD"/>
<path d="M48 472C52.4183 472 56 468.418 56 464C56 459.582 52.4183 456 48 456C43.5817 456 40 459.582 40 464C40 468.418 43.5817 472 48 472Z" fill="#BDBDBD"/>
<path d="M275.888 312H297.056V209.76H276.608V277.296L231.968 209.76H210.8V312H231.248V244.464L275.888 312Z" fill="#BDBDBD"/>
<line x1="192" y1="236.5" x2="315" y2="236.5" stroke="#BDBDBD" stroke-width="13"/>
<line x1="192" y1="263.5" x2="315" y2="263.5" stroke="#BDBDBD" stroke-width="13"/>
</svg>
